images/bikes/bike-rack-parallel-right.svg

<?xml version="1.0" standalone="no"?><!DOCTYPE svg PUBLIC "-//W3C//DTD SVG 1.1//EN" "http://www.w3.org/Graphics/SVG/1.1/DTD/svg11.dtd"><svg width="72px" height="144px" version="1.1" xmlns="http://www.w3.org/2000/svg" xmlns:xlink="http://www.w3.org/1999/xlink" xml:space="preserve" style="fill-rule:evenodd;clip-rule:evenodd;stroke-linejoin:round;stroke-miterlimit:1.41421;"><g><g id="bike-rack-parallel-right" transform="matrix(0.5,0,0,0.5,0,-156)"><g transform="matrix(1.99839,9.86076e-32,1.97215e-31,1.99839,-1023.55,-623.012)"><path d="M547.625,531.874l3.825,0.597l9.655,-1.792l-0.232,-2.281l-9.111,1.226l-3.787,-0.505l-8.289,-3.576l-0.899,2.351l8.838,3.98Z" style="fill:#376486;fill-rule:nonzero;"/></g><g transform="matrix(1.99839,9.86076e-32,1.97215e-31,1.99839,-1023.55,-623.012)"><path d="M543.982,560.025l3.248,-24.682l3.69,0.545l-3.293,24.466l-3.645,-0.329Z" style="fill:#376486;fill-rule:nonzero;"/></g><g transform="matrix(1.99839,9.86076e-32,1.97215e-31,1.99839,-1023.55,-623.012)"><path d="M560.994,527.303l-0.432,4.854l16.987,0.828l0.142,-5.883l-16.697,0.201Z" style="fill:#553f37;fill-rule:nonzero;"/></g><g transform="matrix(1.99839,9.86076e-32,1.97215e-31,1.99839,-1023.55,-623.012)"><path d="M540.204,524.595l-0.967,4.778l-16.517,-4.033l1.53,-5.682l15.954,4.937Z" style="fill:#553f37;fill-rule:nonzero;"/></g><g transform="matrix(1.99839,9.86076e-32,1.97215e-31,1.99839,-1023.55,-623.012)"><path d="M542.405,567.092l-4.832,16.521l-0.107,16.664l4.939,-33.185Z" style="fill:#c0bdba;fill-rule:nonzero;"/></g><g transform="matrix(1.99839,9.86076e-32,1.97215e-31,1.99839,-1023.55,-623.012)"><path d="M547.527,567.835l-0.06,17.212l-4.629,16.008l4.689,-33.22Z" style="fill:#c0bdba;fill-rule:nonzero;"/></g><g transform="matrix(1.99839,9.86076e-32,1.97215e-31,1.99839,-1023.55,-623.012)"><path d="M536.195,609.22l1.205,2.203l2.436,0.354l1.766,-2.031l7.018,-49.779l-1.329,-1.359l-2.385,-0.346l-1.547,1.2l-7.164,49.758Z" style="fill:#2a2b2a;fill-rule:nonzero;"/></g><g transform="matrix(1.99839,9.86076e-32,1.97215e-31,1.99839,-1023.55,-623.012)"><path d="M548.864,583.921l3.239,0.929l3.121,-35.446l-5.46,-2.673l-4.219,-0.58l-6.524,1.055l-6.42,35.228l3.749,-0.198l6.304,-31.908l2.511,-0.767l4.248,0.648l1.72,1.252l-2.269,32.46Z" style="fill:#376486;fill-rule:nonzero;"/></g><g transform="matrix(1.99839,9.86076e-32,1.97215e-31,1.99839,-1023.55,-623.012)"><path d="M547.504,583.539l4.855,1.403l-0.191,1.314l-5.07,0.358l0.406,-3.075Z" style="fill:#5c5f60;fill-rule:nonzero;"/></g><g transform="matrix(1.99839,9.86076e-32,1.97215e-31,1.99839,-1023.55,-623.012)"><path d="M538.08,582.173l-5.488,0.2l-0.188,1.278l5.192,1.585l0.484,-3.063Z" style="fill:#5c5f60;fill-rule:nonzero;"/></g><g transform="matrix(1.99839,9.86076e-32,1.97215e-31,1.99839,-1023.55,-623.012)"><path d="M531.894,589.107l-13.151,-0.14l1.914,-5.159l12.167,0.736l-0.93,4.563Z" style="fill:#373837;fill-rule:nonzero;"/></g><g transform="matrix(1.99839,9.86076e-32,1.97215e-31,1.99839,-1023.55,-623.012)"><path d="M552.872,576.551l14.999,2.348l-0.036,-4.494l-14.509,-2.793l-0.454,4.939Z" style="fill:#373837;fill-rule:nonzero;"/></g><g transform="matrix(1.99839,9.86076e-32,1.97215e-31,1.99839,-1023.55,-623.012)"><clipPath id="tag1"><rect x="546.694" y="535.365" width="4.215" height="8.118"/></clipPath><g clip-path="url(#tag1)"><g opacity="0.5"><path d="M549.924,543.483l-3.23,-4.366l0.543,-3.752l3.672,0.601l-0.985,7.517Z" style="fill:#171817;fill-rule:nonzero;"/></g></g></g><g transform="matrix(1.99839,9.86076e-32,1.97215e-31,1.99839,-1023.55,-623.012)"><path d="M541.825,534.624l15.147,2.207l-0.867,-4.618l-11.918,-1.772l-2.362,4.183Z" style="fill:#be9c3c;fill-rule:nonzero;"/></g><g transform="matrix(1.99839,9.86076e-32,1.97215e-31,1.99839,-1023.55,-623.012)"><path d="M541.825,534.624l15.147,2.207l-0.867,-4.618l-11.918,-1.772l-2.362,4.183Z" style="fill:#553f37;fill-rule:nonzero;"/></g><g transform="matrix(1.99839,9.86076e-32,1.97215e-31,1.99839,-1023.55,-623.012)"><path d="M544.424,548.956l-1.541,4.652l7.337,1.065l0.099,-4.863l-5.895,-0.854Z" style="fill:#ad2125;fill-rule:nonzero;"/></g><g transform="matrix(1.99839,9.86076e-32,1.97215e-31,1.99839,-1023.55,-623.012)"><path d="M555.658,612l0.004,-70.395l6.396,0.023l-0.752,70.371l-5.648,0.001Z" style="fill:#7c705c;fill-rule:nonzero;"/></g><g transform="matrix(1.99839,9.86076e-32,1.97215e-31,1.99839,-1023.55,-623.012)"><path d="M555.662,554.053l-0.852,0.178l-0.185,2.095l1.037,-0.197l0,-2.076Z" style="fill:#373837;fill-rule:nonzero;"/></g><g transform="matrix(1.99839,9.86076e-32,1.97215e-31,1.99839,-1023.55,-623.012)"><path d="M550.876,555.172l-1.328,0.556l-0.769,3.051l0.627,3.005l1.824,2.55l15.695,-2.637l-0.525,-1.944l-14.359,2.578l-1.1,-1.645l-0.31,-2.042l0.123,-1.459l0.122,-2.013Z" style="fill:#373837;fill-rule:nonzero;"/></g><g transform="matrix(1.99839,9.86076e-32,1.97215e-31,1.99839,-1023.55,-623.012)"><path d="M561.918,554.77l0.023,-2.195l3.728,-0.717l0.364,2.194l-4.115,0.718Z" style="fill:#373837;fill-rule:nonzero;"/></g><g transform="matrix(1.99839,9.86076e-32,1.97215e-31,1.99839,-1023.55,-623.012)"><path d="M566.4,554.109l-0.445,-2.66l-3.016,0.662l0.496,2.685l2.965,-0.687Z" style="fill:#373837;fill-rule:nonzero;"/></g><g transform="matrix(1.99839,9.86076e-32,1.97215e-31,1.99839,-1023.55,-623.012)"><path d="M567.731,562.03l-0.464,-2.764l-2.932,0.391l0.528,2.855l2.868,-0.482Z" style="fill:#373837;fill-rule:nonzero;"/></g><g transform="matrix(1.99839,9.86076e-32,1.97215e-31,1.99839,-1023.55,-623.012)"><path d="M531.894,589.107l3.348,0l0.572,-4.416l-2.895,-0.883l-1.025,5.299Z" style="fill:#373837;fill-rule:nonzero;"/></g><g transform="matrix(1.99839,9.86076e-32,1.97215e-31,1.99839,-1023.55,-623.012)"><path d="M563.435,554.796l2.965,-0.687l0.866,5.158l-2.933,0.39l-0.898,-4.861Z" style="fill:#fde677;fill-rule:nonzero;"/></g></g></g></svg>

<?xml version="1.0" encoding="UTF-8" standalone="no"?>
<!DOCTYPE svg PUBLIC "-//W3C//DTD SVG 1.1//EN" "http://www.w3.org/Graphics/SVG/1.1/DTD/svg11.dtd">
<svg width="100%" height="100%" viewBox="0 0 80 120" version="1.1" xmlns="http://www.w3.org/2000/svg" xmlns:xlink="http://www.w3.org/1999/xlink" xml:space="preserve" xmlns:serif="http://www.serif.com/" style="fill-rule:evenodd;clip-rule:evenodd;stroke-linejoin:round;stroke-miterlimit:2;">
    <g id="bike-rack-parallel-right" transform="matrix(0.635,0,0,0.635,-5.72,-261)">
        <g transform="matrix(1.99839,9.86076e-32,1.97215e-31,1.99839,-1023.55,-623.012)">
            <path d="M547.625,531.874L551.45,532.471L561.105,530.679L560.873,528.398L551.762,529.624L547.975,529.119L539.686,525.543L538.787,527.894L547.625,531.874Z" style="fill:rgb(55,100,134);fill-rule:nonzero;"/>
        </g>
        <g transform="matrix(1.99839,9.86076e-32,1.97215e-31,1.99839,-1023.55,-623.012)">
            <path d="M543.982,560.025L547.23,535.343L550.92,535.888L547.627,560.354L543.982,560.025Z" style="fill:rgb(55,100,134);fill-rule:nonzero;"/>
        </g>
        <g transform="matrix(1.99839,9.86076e-32,1.97215e-31,1.99839,-1023.55,-623.012)">
            <path d="M560.994,527.303L560.562,532.157L577.549,532.985L577.691,527.102L560.994,527.303Z" style="fill:rgb(85,63,55);fill-rule:nonzero;"/>
        </g>
        <g transform="matrix(1.99839,9.86076e-32,1.97215e-31,1.99839,-1023.55,-623.012)">
            <path d="M540.204,524.595L539.237,529.373L522.72,525.34L524.25,519.658L540.204,524.595Z" style="fill:rgb(85,63,55);fill-rule:nonzero;"/>
        </g>
        <g transform="matrix(1.99839,9.86076e-32,1.97215e-31,1.99839,-1023.55,-623.012)">
            <path d="M542.405,567.092L537.573,583.613L537.466,600.277L542.405,567.092Z" style="fill:rgb(192,189,186);fill-rule:nonzero;"/>
        </g>
        <g transform="matrix(1.99839,9.86076e-32,1.97215e-31,1.99839,-1023.55,-623.012)">
            <path d="M547.527,567.835L547.467,585.047L542.838,601.055L547.527,567.835Z" style="fill:rgb(192,189,186);fill-rule:nonzero;"/>
        </g>
        <g transform="matrix(1.99839,9.86076e-32,1.97215e-31,1.99839,-1023.55,-623.012)">
            <path d="M536.195,609.22L537.4,611.423L539.836,611.777L541.602,609.746L548.62,559.967L547.291,558.608L544.906,558.262L543.359,559.462L536.195,609.22Z" style="fill:rgb(42,43,42);fill-rule:nonzero;"/>
        </g>
        <g transform="matrix(1.99839,9.86076e-32,1.97215e-31,1.99839,-1023.55,-623.012)">
            <path d="M548.864,583.921L552.103,584.85L555.224,549.404L549.764,546.731L545.545,546.151L539.021,547.206L532.601,582.434L536.35,582.236L542.654,550.328L545.165,549.561L549.413,550.209L551.133,551.461L548.864,583.921Z" style="fill:rgb(55,100,134);fill-rule:nonzero;"/>
        </g>
        <g transform="matrix(1.99839,9.86076e-32,1.97215e-31,1.99839,-1023.55,-623.012)">
            <path d="M547.504,583.539L552.359,584.942L552.168,586.256L547.098,586.614L547.504,583.539Z" style="fill:rgb(92,95,96);fill-rule:nonzero;"/>
        </g>
        <g transform="matrix(1.99839,9.86076e-32,1.97215e-31,1.99839,-1023.55,-623.012)">
            <path d="M538.08,582.173L532.592,582.373L532.404,583.651L537.596,585.236L538.08,582.173Z" style="fill:rgb(92,95,96);fill-rule:nonzero;"/>
        </g>
        <g transform="matrix(1.99839,9.86076e-32,1.97215e-31,1.99839,-1023.55,-623.012)">
            <path d="M531.895,589.107L518.744,588.967L520.658,583.808L532.824,584.544L531.895,589.107Z" style="fill:rgb(55,56,55);fill-rule:nonzero;"/>
        </g>
        <g transform="matrix(1.99839,9.86076e-32,1.97215e-31,1.99839,-1023.55,-623.012)">
            <path d="M552.872,576.551L567.871,578.899L567.835,574.405L553.326,571.612L552.872,576.551Z" style="fill:rgb(55,56,55);fill-rule:nonzero;"/>
        </g>
        <g transform="matrix(1.99839,9.86076e-32,1.97215e-31,1.99839,-1023.55,-623.012)">
            <g opacity="0.5">
                <path d="M549.924,543.483L546.694,539.117L547.237,535.365L550.909,535.966L549.924,543.483Z" style="fill:rgb(23,24,23);fill-rule:nonzero;"/>
            </g>
        </g>
        <g transform="matrix(1.99839,9.86076e-32,1.97215e-31,1.99839,-1023.55,-623.012)">
            <path d="M541.825,534.624L556.972,536.831L556.105,532.213L544.187,530.441L541.825,534.624Z" style="fill:rgb(190,156,60);fill-rule:nonzero;"/>
        </g>
        <g transform="matrix(1.99839,9.86076e-32,1.97215e-31,1.99839,-1023.55,-623.012)">
            <path d="M541.825,534.624L556.972,536.831L556.105,532.213L544.187,530.441L541.825,534.624Z" style="fill:rgb(85,63,55);fill-rule:nonzero;"/>
        </g>
        <g transform="matrix(1.99839,9.86076e-32,1.97215e-31,1.99839,-1023.55,-623.012)">
            <path d="M544.424,548.956L542.883,553.608L550.22,554.673L550.319,549.81L544.424,548.956Z" style="fill:rgb(173,33,37);fill-rule:nonzero;"/>
        </g>
        <g transform="matrix(1.99839,9.86076e-32,1.97215e-31,1.99839,-1023.55,-623.012)">
            <path d="M555.658,612L555.662,541.605L562.058,541.628L561.306,611.999L555.658,612Z" style="fill:rgb(124,112,92);fill-rule:nonzero;"/>
        </g>
        <g transform="matrix(1.99839,9.86076e-32,1.97215e-31,1.99839,-1023.55,-623.012)">
            <path d="M555.662,554.053L554.81,554.231L554.625,556.326L555.662,556.129L555.662,554.053Z" style="fill:rgb(55,56,55);fill-rule:nonzero;"/>
        </g>
        <g transform="matrix(1.99839,9.86076e-32,1.97215e-31,1.99839,-1023.55,-623.012)">
            <path d="M550.876,555.172L549.548,555.728L548.779,558.779L549.406,561.784L551.23,564.334L566.925,561.697L566.4,559.753L552.041,562.331L550.941,560.686L550.631,558.644L550.754,557.185L550.876,555.172Z" style="fill:rgb(55,56,55);fill-rule:nonzero;"/>
        </g>
        <g transform="matrix(1.99839,9.86076e-32,1.97215e-31,1.99839,-1023.55,-623.012)">
            <path d="M561.918,554.771L561.941,552.575L565.669,551.858L566.033,554.053L561.918,554.771Z" style="fill:rgb(55,56,55);fill-rule:nonzero;"/>
        </g>
        <g transform="matrix(1.99839,9.86076e-32,1.97215e-31,1.99839,-1023.55,-623.012)">
            <path d="M566.4,554.109L565.955,551.449L562.939,552.111L563.435,554.796L566.4,554.109Z" style="fill:rgb(55,56,55);fill-rule:nonzero;"/>
        </g>
        <g transform="matrix(1.99839,9.86076e-32,1.97215e-31,1.99839,-1023.55,-623.012)">
            <path d="M567.731,562.03L567.266,559.266L564.335,559.657L564.863,562.512L567.731,562.03Z" style="fill:rgb(55,56,55);fill-rule:nonzero;"/>
        </g>
        <g transform="matrix(1.99839,9.86076e-32,1.97215e-31,1.99839,-1023.55,-623.012)">
            <path d="M531.895,589.107L535.242,589.107L535.814,584.691L532.92,583.808L531.895,589.107Z" style="fill:rgb(55,56,55);fill-rule:nonzero;"/>
        </g>
        <g transform="matrix(1.99839,9.86076e-32,1.97215e-31,1.99839,-1023.55,-623.012)">
            <path d="M563.435,554.796L566.401,554.109L567.266,559.267L564.334,559.657L563.435,554.796Z" style="fill:rgb(253,230,119);fill-rule:nonzero;"/>
        </g>
    </g>
</svg>
